icons/solid/shield-check.svg

<svg width="24" height="24" viewBox="0 0 24 24" fill="none" xmlns="http://www.w3.org/2000/svg">
<path fill-rule="evenodd" clip-rule="evenodd" d="M12 1.93201L21 5.30701V10C21 14.1181 19.3807 17.1128 17.4654 19.0737C16.5133 20.0485 15.4878 20.7688 14.5497 21.2494C13.6372 21.7169 12.7236 22 12 22C11.2764 22 10.3628 21.7169 9.45027 21.2494C8.51225 20.7688 7.48671 20.0485 6.53462 19.0737C4.61932 17.1128 3 14.1181 3 10V5.30701L12 1.93201ZM15.7071 10.7071C16.0976 10.3166 16.0976 9.68342 15.7071 9.29289C15.3166 8.90237 14.6834 8.90237 14.2929 9.29289L11 12.5858L9.70711 11.2929C9.31658 10.9024 8.68342 10.9024 8.29289 11.2929C7.90237 11.6834 7.90237 12.3166 8.29289 12.7071L10.2929 14.7071C10.6834 15.0976 11.3166 15.0976 11.7071 14.7071L15.7071 10.7071Z" fill="currentColor"/>
</svg>

<svg width="24" height="24" fill="none" xmlns="http://www.w3.org/2000/svg"><path fill-rule="evenodd" clip-rule="evenodd" d="M12 1.932l9 3.375V10c0 4.118-1.62 7.113-3.535 9.074a11.407 11.407 0 01-2.915 2.175c-.913.468-1.826.751-2.55.751-.724 0-1.637-.283-2.55-.75-.938-.481-1.963-1.201-2.915-2.176C4.619 17.113 3 14.118 3 10V5.307l9-3.375zm3.707 8.775a1 1 0 00-1.414-1.414L11 12.586l-1.293-1.293a1 1 0 00-1.414 1.414l2 2a1 1 0 001.414 0l4-4z" fill="currentColor"/></svg>
